packages/ui-icons/svg/Line/move-up.svg

<svg viewBox="0 0 1920 1920" version="1.1" xmlns="http://www.w3.org/2000/svg">
    <path d="M1920,1546.99289 L1920,1653.65896 L533.341037,1653.65896 L533.341037,1546.99289 L1920,1546.99289 Z M357.651346,442.668357 L662.076322,746.986667 L357.651346,1051.30498 L282.345098,975.998728 L457.917456,800.319704 L106.666074,800.319704 L106.666074,1653.6483 L0,1653.6483 L0,693.65363 L457.917456,693.65363 L282.345098,518.081272 L357.651346,442.668357 Z M1920,1120.22193 L1920,1226.99467 L533.341037,1226.99467 L533.341037,1120.22193 L1920,1120.22193 Z M1066.67141,693.664296 L1066.67141,800.33037 L853.339259,800.33037 L853.339259,693.664296 L1066.67141,693.664296 Z M1493.3357,693.664296 L1493.3357,800.33037 L1280.00356,800.33037 L1280.00356,693.664296 L1493.3357,693.664296 Z M1920,693.664296 L1920,800.33037 L1706.66785,800.33037 L1706.66785,693.664296 L1920,693.664296 Z M1920,267 L1920,373.666074 L533.341037,373.666074 L533.341037,267 L1920,267 Z" stroke="none" stroke-width="1" fill-rule="evenodd"/>
</svg>

<svg viewBox="0 0 1920 1920" xmlns="http://www.w3.org/2000/svg">
    <path d="M1920 1546.993v106.666H533.341v-106.666H1920ZM357.651 442.668l304.425 304.319-304.425 304.318-75.306-75.306 175.572-175.68h-351.25v853.33H0V693.653h457.917L282.345 518.08l75.306-75.413ZM1920 1120.222v106.773H533.341v-106.773H1920Zm-853.329-426.558V800.33H853.34V693.664h213.332Zm426.665 0V800.33h-213.332V693.664h213.332Zm426.664 0V800.33h-213.332V693.664H1920ZM1920 267v106.666H533.341V267H1920Z" fill-rule="evenodd"/>
</svg>
